src/wp-content/themes/aquaban/assets/images/dop.svg

<svg width="92" height="92" viewBox="0 0 92 92" fill="none" xmlns="http://www.w3.org/2000/svg">
<circle cx="46" cy="46" r="46" fill="#00AFEA"/>
<path d="M45.8489 26.0352C46.1695 25.9331 46.542 26.0594 46.7363 26.3343C47.3246 27.1044 47.8467 27.9228 48.3437 28.7547C49.0179 29.926 49.6716 31.1304 50.0334 32.4396C50.3432 33.5061 50.1086 34.6872 49.5042 35.6068C48.88 36.5686 47.8332 37.2491 46.6951 37.4103C45.531 37.593 44.297 37.2375 43.4105 36.462C42.233 35.4654 41.6814 33.7514 42.1775 32.273C42.79 30.3495 43.8636 28.6123 44.9821 26.9468C45.2462 26.6262 45.4235 26.1731 45.8489 26.0352Z" fill="white"/>
<path d="M32.8758 27.4626C33.199 27.3686 33.5662 27.5011 33.7569 27.7787C34.3443 28.5506 34.8673 29.3699 35.3634 30.2027C36.0332 31.3677 36.6833 32.565 37.0424 33.8679C37.3773 35.0123 37.0854 36.2874 36.3788 37.234C35.7036 38.1554 34.6246 38.7715 33.4847 38.87C32.3707 38.9828 31.2191 38.6085 30.3837 37.8617C29.3646 36.9707 28.8139 35.5388 29.0673 34.1983C29.25 33.3127 29.6225 32.4808 30.0201 31.6731C30.7007 30.3388 31.4824 29.0547 32.3743 27.8503C32.4961 27.6739 32.6635 27.5181 32.8758 27.4626Z" fill="white"/>
<path d="M58.8148 27.476C59.1541 27.3533 59.5517 27.4984 59.7496 27.7957C60.5842 28.906 61.3095 30.0961 61.965 31.3193C62.3975 32.1557 62.7996 33.0171 63.0387 33.9305C63.3494 35.0704 63.0432 36.3277 62.3384 37.2608C61.6507 38.1822 60.5573 38.792 59.4094 38.8744C58.3214 38.9702 57.2029 38.6031 56.3845 37.8804C55.292 36.9411 54.7287 35.3776 55.0968 33.9681C55.3242 33.0709 55.7182 32.2264 56.1382 31.4053C56.7973 30.1624 57.5333 28.958 58.3715 27.827C58.4825 27.6712 58.6294 27.5369 58.8148 27.476Z" fill="white"/>
<path d="M35.9643 43.3122C36.7613 42.2618 38.066 41.6251 39.385 41.6412C43.9528 41.6421 48.5206 41.6385 53.0884 41.643C54.6214 41.6457 56.1043 42.5537 56.8082 43.9139C57.3911 45.0637 57.9615 46.2207 58.5409 47.3722C59.6799 47.374 60.8181 47.3695 61.9562 47.374C62.7174 47.3534 63.3988 48.0411 63.3845 48.7996C63.4051 49.5276 62.7791 50.2019 62.0511 50.2306C61.5407 50.2494 61.0312 50.2306 60.5217 50.2395C61.1861 51.1269 61.8532 52.0126 62.5168 52.9009C62.8956 53.4077 63.1651 53.9969 63.2923 54.6166C63.4275 55.238 63.3764 55.8774 63.3863 56.5078C63.3782 57.346 63.4024 58.1841 63.3737 59.0214C63.3245 59.9688 62.7469 60.8293 61.9473 61.3192C61.9589 61.9236 61.9535 62.528 61.9517 63.1334C61.9535 63.9062 61.6267 64.6718 61.0652 65.2037C60.5414 65.7096 59.8178 65.9962 59.0916 65.9962C58.1666 66.0007 57.2416 65.9962 56.3165 65.998C55.1829 66.0419 54.0671 65.3497 53.6113 64.31C53.2254 63.4934 53.3937 62.5701 53.357 61.6997C48.5815 61.6997 43.8051 61.6997 39.0295 61.6997C38.9928 62.5468 39.1522 63.4378 38.8048 64.2402C38.3902 65.2556 37.3505 65.9756 36.2518 65.9935C35.2068 65.998 34.1609 66.0069 33.1158 65.989C31.8147 65.9317 30.6515 64.8706 30.4697 63.582C30.3829 62.8173 30.4715 62.0454 30.4169 61.2789C29.5501 60.7971 29.0003 59.8219 29.003 58.8342C28.9976 57.7301 29.0012 56.626 29.0012 55.5219C28.9958 54.5834 29.3056 53.6495 29.8698 52.9C30.5333 52.0117 31.1995 51.126 31.8649 50.2386C31.3554 50.2306 30.8467 50.2494 30.3381 50.2315C29.6119 50.2001 28.9815 49.533 29.0012 48.805C28.9824 48.077 29.6056 47.4045 30.3354 47.3785C31.5049 47.3633 32.6753 47.3767 33.8448 47.3722C34.314 46.44 34.7787 45.5052 35.2462 44.5721C35.4638 44.1405 35.6626 43.6945 35.9643 43.3122ZM38.0669 45.3395C37.4105 46.6496 36.755 47.9615 36.1004 49.2733C36.0207 49.43 35.9294 49.5814 35.8381 49.7309C36.2016 49.9834 36.593 50.261 37.0595 50.2359C43.1487 50.2386 49.2379 50.2386 55.3271 50.2368C55.7927 50.2592 56.1867 49.9879 56.5485 49.7309C55.876 48.5319 55.3074 47.2755 54.6769 46.0532C54.4262 45.6019 54.2758 45.0512 53.82 44.7548C53.5307 44.547 53.1672 44.4933 52.8188 44.5049C48.3424 44.5094 43.866 44.504 39.3895 44.5076C38.8325 44.4924 38.2997 44.8363 38.0669 45.3395ZM34.2316 54.5951C33.5699 54.7509 32.9968 55.2389 32.7433 55.8711C32.4487 56.5705 32.5723 57.4221 33.0469 58.0131C33.5009 58.5996 34.2755 58.9148 35.0098 58.8118C35.8291 58.7151 36.5527 58.0982 36.7837 57.3075C37.0174 56.5651 36.7998 55.7064 36.2428 55.1628C35.7306 54.6425 34.9399 54.4249 34.2316 54.5951ZM57.1592 54.5942C56.4947 54.7491 55.9199 55.2389 55.6664 55.8729C55.3727 56.5741 55.4972 57.4283 55.9754 58.0185C56.4294 58.6014 57.2004 58.9148 57.932 58.8118C58.797 58.7116 59.551 58.0292 59.7426 57.1812C59.9217 56.4487 59.6781 55.6338 59.1247 55.1225C58.6134 54.63 57.8478 54.4303 57.1592 54.5942Z" fill="white"/>
</svg>

<svg width="92" height="92" fill="none" xmlns="http://www.w3.org/2000/svg"><circle cx="46" cy="46" r="46" fill="#00AFEA"/><path d="M45.849 26.035a.81.81 0 01.887.3c.589.77 1.11 1.588 1.608 2.42.674 1.171 1.328 2.375 1.69 3.685.31 1.066.075 2.247-.53 3.167a4.092 4.092 0 01-6.094.855c-1.177-.997-1.729-2.71-1.232-4.189.612-1.924 1.686-3.66 2.804-5.326.264-.32.441-.774.867-.912zm-12.973 1.428a.814.814 0 01.88.316c.588.772 1.111 1.59 1.607 2.424.67 1.165 1.32 2.362 1.68 3.665.334 1.144.042 2.42-.664 3.366a4.092 4.092 0 01-5.995.628c-1.02-.891-1.57-2.323-1.317-3.664.183-.885.555-1.717.953-2.525a27.134 27.134 0 012.354-3.823c.122-.176.29-.332.502-.387zm25.939.013a.817.817 0 01.935.32c.834 1.11 1.56 2.3 2.215 3.523.432.837.835 1.698 1.074 2.612.31 1.14.004 2.397-.7 3.33a4.075 4.075 0 01-2.93 1.613 4.083 4.083 0 01-3.024-.994c-1.093-.939-1.656-2.502-1.288-3.912.227-.897.621-1.742 1.041-2.563a28.122 28.122 0 012.233-3.578.906.906 0 01.444-.351zM35.964 43.312a4.291 4.291 0 013.421-1.67c4.568 0 9.136-.004 13.703.001 1.533.003 3.016.91 3.72 2.27.583 1.15 1.154 2.308 1.733 3.46 1.139.001 2.277-.003 3.415.001.761-.02 1.443.667 1.428 1.426.021.728-.605 1.402-1.333 1.43-.51.02-1.02 0-1.53.01.665.887 1.332 1.773 1.996 2.66.379.508.648 1.097.775 1.717.136.621.084 1.26.094 1.89-.008.839.016 1.677-.012 2.514-.05.948-.627 1.808-1.427 2.298.012.605.006 1.209.005 1.814a2.874 2.874 0 01-.887 2.07 2.87 2.87 0 01-1.973.793c-.925.005-1.85 0-2.776.002-1.133.044-2.249-.648-2.705-1.688-.386-.817-.217-1.74-.254-2.61H39.029c-.036.847.123 1.738-.224 2.54-.415 1.016-1.455 1.736-2.553 1.754-1.045.004-2.091.013-3.136-.005-1.301-.057-2.465-1.118-2.646-2.407-.087-.765.002-1.537-.053-2.303-.867-.482-1.417-1.457-1.414-2.445-.005-1.104-.002-2.208-.002-3.312a4.35 4.35 0 01.869-2.622c.663-.888 1.33-1.774 1.995-2.661-.51-.008-1.018.01-1.527-.008-.726-.03-1.357-.698-1.337-1.426-.019-.728.605-1.4 1.334-1.426 1.17-.016 2.34-.002 3.51-.007.469-.932.934-1.867 1.401-2.8.218-.431.417-.878.718-1.26zm2.103 2.028c-.657 1.31-1.312 2.621-1.967 3.933-.08.157-.17.308-.262.458.364.252.755.53 1.221.505 6.09.003 12.179.003 18.268 0 .466.023.86-.248 1.221-.505-.672-1.2-1.24-2.456-1.871-3.678-.25-.451-.401-1.002-.857-1.298-.29-.208-.653-.262-1.001-.25-4.477.004-8.953-.001-13.43.003a1.446 1.446 0 00-1.322.831zm-3.835 9.255a2.16 2.16 0 00-1.489 1.276 2.15 2.15 0 002.267 2.94 2.153 2.153 0 001.774-1.504 2.153 2.153 0 00-.541-2.144 2.163 2.163 0 00-2.011-.568zm22.927 0a2.159 2.159 0 00-1.493 1.278 2.147 2.147 0 002.266 2.939 2.155 2.155 0 001.81-1.63 2.156 2.156 0 00-.617-2.06 2.158 2.158 0 00-1.966-.528z" fill="#fff"/></svg>
